X: 1643
T: Sabâ Sazsemâîsi
C: Zaharya
O: Turkey
F: http://compmusic.upf.edu/node/140
N: saba--sazsemaisi--aksaksemai----zaharya
N: makam= saba
N: form= sazsemaisi
N: usul= aksaksemai = 10/8
M: 10/8
L: 1/16
K: C _2/4B _3/4d  
Q: 1/4=120
%%MIDI tuningsystem comma53
c4 _7/8d2c4_1/4Bc Bdc4Bc  | A4 _1/4BAB2 c2BA GBA4z2  | 
w:  1. HANE  |   | 
A4 c2A_1/4B A2B2 c2AB A2B2  | c4 _7/8d2c4_1/4Bc Bdc4Bc  | 
w:   |   | 
A4 _1/4BAB2 c2BA GBA4z2  | A4 _1/4B2c4_7/8d4c4Bc  | \
w:   |   | 
A4 _1/4B2c_7/8d c2de dee4_a2  | 
w:   | 
efef g2_ag f2gf efef e4  | c4 _7/8d2c4c_1/4B cdcd c2Bc  | 
w:    TESLİM  |   | 
A4 _1/4BAB2 c2BA GBA4z2  | G4 A_1/4BGA G2AB A2Bc B2c2  | 
w:   |  2. HANE  | 
=d4 g2^f2 e2f2 g2a4z2  | a4 _1/4bc'a2 c'2b2 c'2ab a2b2  | \
w:   |   | 
c'4 _7/8d'2c'd' c'_1/4bag abc'4z2  | 
w:   | 
efef g2_ag f2gf efef e4  | c4 _7/8d2c4c_1/4B cdcd c2Bc  | 
w:    TESLİM  |   | 
A4 _1/4BAB2 c2BA GBA4z2  | a4 _1/4b2c'b c'_7/8d'c'b a2b4g2  | 
w:   |  3. HANE  | 
a4 ^f2gf gagf e2=f4_7/8d2  | e4 c2_7/8dc dedc _1/4B2cd c2B2  | 
w:   |   | 
A4 _1/4BcA2 c2Bc ABA4B2  | c4 _1/4B2_7/8d2 cBBA GBA4z2  | 
w:   |   | 
efef g2_ag f2gf efef e4  | c4 _7/8d2c4c_1/4B cdcd c2Bc  | 
w:    TESLİM  |   | 
A4 _1/4BAB2 c2BA GBA4z2  | z12  | A2_1/4B2c2_7/8decdcB  | 
w:   |  |  4. HANE  | 
AGA_1/4Bc2_7/8d2cdcB  | A2_1/4B2c2_7/8decdcB  | \
w:   |   | 
_7/8d2f2e2d2cdc_1/4B  | 
w:   | 
A2_1/4BAB2G2A4  | efef_7/8agfef4  | e2f2efe_7/8dcdc_1/4B  | 
w:   |   |   | 
AGA_1/4Bc2_7/8d2cdcB  | A2_1/4BAB2G2A4  | z20  | \
w:   |   |  | 
efef g2_ag f2gf efef e4  | 
w:    TESLİM  | 
c4 _7/8d2c4c_1/4B cdcd c2Bc  | A4 _1/4BAB2 c2BA GBA4z2  | 
w:   |   | 
|


